!!!!SEGMENT: pl-sa--l-1636--002_anonim-preludium.krn
!!!id: 17xx:709
!!!COM: Anonim
!!!OTL: Preludium
!!!PDT:
!!!SMS-siglum: PL-SA
!!!SMS-shelfmark: L 1636
!!!NIFC-rismID: 1001076165
!!!URL-scan: http://repozytorium.nifc.pl/skany/pl-sa-nut--l1636
!!!ONB-nifc: 1r, skan 0004, s. 3-4
!!!SMS-variant:
!!!SMS-altvar:
**kern	**kern
*part2	*part1
*staff2	*staff1
*clefF4	*clefC1
*k[]	*k[]
*M4/4	*M4/4
=1	=1
*2\right	*2\right
*^	*
!LO:SIC:o:s:=:v:wszystkie caudy z prawej strony	!	!LO:SIC:o:s:=:v:wszystkie caudy z prawej strony
2C/	2CC/	8c/L
.	.	8d/
.	.	8e/
.	.	8f/J
2c/	2E\	8g/L
.	.	8e/
.	.	8f/
.	.	8g/J
=2	=2	=2
2c/	2F\	8a\L
.	.	8g\
.	.	8f\
.	.	8e\J
2B/	2G\	8d/L
.	.	8g/
.	.	8f/
.	.	8g/J
=3	=3	=3
[2G/	2C\	8e/L
.	.	8f#X/
.	.	8g/
.	.	8a/J
(2G/]	2BB\	8b\L
.	.	8dd\
.	.	8cc\
.	.	8b\J
=4	=4	=4
2F/)	[2AA\	8cc\L
.	.	8ee\
.	.	8dd\
.	.	8ee\J
2F#X/	2AA\]	8a\L
.	.	8dd\
.	.	8cc\
.	.	8dd\J
*v	*v	*
=5	=5
8G\L	1b/ 1g/ 1d/
8D\	.
8G\	.
8F\J	.
8E\L	.
8F\	.
8D\	.
8E\J	.
=6	=6
*	*^
8C/L	2g/	2e\
8D/	.	.
8BB/	.	.
8C/J	.	.
8AA/L	2cc/	2a\
8BB/	.	.
8C/	.	.
8AA/J	.	.
!!LO:LB:g=original
=7	=7	=7
8D/L	2a/	2f#X\
8E/	.	.
8C/	.	.
8D/J	.	.
8BB/L	2dd/	2b\
8C/	.	.
8D/	.	.
8BB/J	.	.
=8	=8	=8
8E\L	2b/	2g\
8F\	.	.
8D\	.	.
8E\J	.	.
8C/L	2ee/	2cc\
8D/	.	.
8E/	.	.
8C/J	.	.
=9	=9	=9
8F\L	2cc/	2a\
8G\	.	.
8E\	.	.
8F\J	.	.
8D/L	2ff/	2dd\
8E/	.	.
8F/	.	.
8D/J	.	.
=10	=10	=10
8G\L	2dd/	2b\
8A\	.	.
8F\	.	.
8G\J	.	.
8C/L	2ee/	[2cc\
8E/	.	.
8D/	.	.
8C/J	.	.
=11	=11	=11
8F\L	1dd/	2cc\]
8D\	.	.
8E\	.	.
8F\J	.	.
!LO:SIC:o:s:=:v:mixed beam	!	!
8G\L	.	2b\
8F\	.	.
8G\	.	.
8GG\J	.	.
*	*v	*v
=12	=12
1C/ 1GG/ 1EE/ 1CC/	1ee\ 1cc\ 1g\
==	==
*-	*-
!!!system-decoration: s1,s2
!!!ENC: Andrzej Borzym
!!!END:2020-06-11
!!!EED: Leszek Kubiak
!!!EST: 2020-12-07
